epam-assets/icon-sources/18/table-column_remove.svg

<svg width="18" height="18" viewBox="0 0 18 18" fill="none" xmlns="http://www.w3.org/2000/svg">
<g id="18/table-column_remove">
<path id="icon" fill-rule="evenodd" clip-rule="evenodd" d="M3 1.5H8.25C9.07843 1.5 9.75 2.17157 9.75 3V15C9.75 15.8284 9.07843 16.5 8.25 16.5H3C2.17157 16.5 1.5 15.8284 1.5 15V3C1.5 2.17157 2.17157 1.5 3 1.5ZM3 7.5V10.5H8.25V7.5H3ZM3 12V15H8.25V12H3ZM3 3V6H8.25V3H3ZM13.1925 9L11.25 7.0575L12.3075 6L14.25 7.9425L16.1925 6L17.25 7.0575L15.3075 9L17.25 10.9425L16.1925 12L14.25 10.0575L12.3075 12L11.25 10.9425L13.1925 9Z" fill="#6C6F80"/>
</g>
</svg>

<svg xmlns="http://www.w3.org/2000/svg" width="18" height="18" fill="none" viewBox="0 0 18 18">
  <path fill="#6C6F80" fill-rule="evenodd" d="M3 1.5h5.25A1.5 1.5 0 0 1 9.75 3v12a1.5 1.5 0 0 1-1.5 1.5H3A1.5 1.5 0 0 1 1.5 15V3A1.5 1.5 0 0 1 3 1.5Zm0 6v3h5.25v-3H3ZM3 12v3h5.25v-3H3Zm0-9v3h5.25V3H3Zm10.193 6L11.25 7.058 12.307 6l1.943 1.942L16.192 6l1.058 1.058L15.307 9l1.943 1.943L16.192 12l-1.942-1.943L12.307 12l-1.057-1.057L13.193 9Z" clip-rule="evenodd"/>
</svg>
